assets/img/decor-share.svg

<svg width="465" height="36" viewBox="0 0 465 36" fill="none" xmlns="http://www.w3.org/2000/svg">
<path fill-rule="evenodd" clip-rule="evenodd" d="M440.703 1.02752C443.105 1.08173 445.501 1.49076 447.357 2.9051C449.546 4.64961 450.057 7.18261 450.294 9.58255C453.732 6.46312 458.358 3.35355 462.838 1.7273H463.53L464.021 2.17082V2.80654L463.53 3.25006C463.419 3.25006 461.69 4.0139 461.574 4.06318C457.372 6.09352 453.621 8.73493 450.315 11.9923C450.168 14.3874 449.688 16.7134 448.879 18.9803C448.065 21.2422 446.952 23.3514 445.537 25.3078C443.848 27.6141 438.949 33.099 436.967 30.975C436.548 30.4231 436.416 29.812 436.573 29.1369C436.664 28.5702 436.811 28.0182 437.008 27.4762C439.025 22.1342 444.157 15.4075 448.338 11.4207C448.429 9.83388 448.232 8.28156 447.741 6.76866C447.453 5.90133 446.978 5.14734 446.315 4.51163C445.355 3.65908 444.359 3.40282 443.06 3.09236C441.341 2.80161 439.622 2.79175 437.903 3.05786C430.278 4.20609 422.462 8.54274 416.512 12.9878C415.864 13.4757 415.207 13.998 415.126 14.0966C414.959 15.8362 414.641 17.5511 414.176 19.2365C413.736 20.8825 413.175 22.4841 412.487 24.0413C411.274 26.8946 408.387 31.9064 404.984 31.6255C404.443 31.591 404.044 31.3348 403.796 30.8568C403.26 29.8317 403.463 27.4269 403.594 26.2934C403.791 24.4849 404.413 22.834 405.47 21.3408C406.688 19.478 408.104 17.7729 409.706 16.2157C413.316 12.6626 412.927 13.6728 412.978 12.8942C413.17 5.7732 410.495 1.65831 402.628 2.14125C397.289 2.59463 392.431 4.94036 387.992 7.57192C388.179 8.86799 388.169 10.1591 387.956 11.4503C387.168 16.5409 384.149 22.5826 381.131 26.7616C379.549 28.9496 376.434 32.9265 373.573 32.8083C372.45 32.7196 370.949 31.6108 370.266 30.7976C367.364 27.348 369.442 22.5826 371.985 18.9458C374.887 14.9393 378.856 10.9476 385.181 6.76373C384.943 6.16744 384.559 5.68449 384.023 5.31982C382.992 4.63976 381.864 4.19131 380.646 3.97447C371.783 2.21517 357.515 10.3464 350.124 15.235C348.627 20.6804 343.931 29.5952 339.037 32.5766C338.197 33.0892 337.282 33.3701 336.296 33.4095C335.816 33.444 335.401 33.306 335.037 32.9955C334.592 32.5816 334.426 32.074 334.542 31.4777C334.775 28.9151 339.952 20.3749 341.711 18.4185C342.591 17.4329 347.556 14.0227 347.677 13.9389C348.026 12.5492 348.122 11.1447 347.975 9.72053C347.899 8.93698 347.652 8.20763 347.242 7.5325C346.827 6.86229 346.287 6.30542 345.619 5.87176C344.552 5.23112 343.4 4.82702 342.161 4.6644C332.353 3.22049 315.052 9.71068 307.185 15.5454C306.856 18.3248 306.032 20.9564 304.708 23.4352C303.333 26.0667 299.546 32.1528 296.472 31.4186C294.783 30.975 294.692 29.2847 294.945 27.7028C295.203 25.9731 295.749 24.3321 296.578 22.7847C298.469 19.3006 301.148 16.876 304.359 14.3381C304.359 14.2543 304.359 13.7861 304.359 13.6679C304.349 12.5049 304.061 11.4158 303.489 10.3957C302.923 9.37557 302.144 8.54767 301.153 7.91688C298.474 6.1428 295.36 6.35963 292.063 6.97563C286.997 8.07951 282.558 10.1197 278.165 12.6921C275.849 14.0572 273.65 15.5799 271.562 17.2555C271.4 17.3836 271.446 17.3245 271.41 17.5216C270.839 20.4735 269.828 23.2676 268.382 25.909C267.34 27.7373 266.026 29.3488 264.438 30.7484C263.832 31.3742 263.164 31.9311 262.431 32.4091C261.658 32.8871 261.187 33.2173 260.621 33.2173C260.186 33.2222 259.812 33.0793 259.499 32.7787C259.221 32.5027 259.079 32.1725 259.084 31.7832C258.938 29.9845 259.236 28.2597 259.979 26.6138C260.743 24.9185 261.708 23.3465 262.876 21.8976C264.58 19.754 266.486 17.8074 268.594 16.053C269.059 13.1258 268.842 9.32137 266.607 7.19739H266.541C266.496 7.16782 266.45 7.14811 266.405 7.1284C265.829 6.91157 265.232 6.80808 264.615 6.81301C262.451 6.74402 259.549 7.36494 257.446 7.92181C250.09 9.97679 243.255 13.1258 236.94 17.3737C236.99 20.6065 236.318 23.6964 234.933 26.6285C234.174 28.2351 233.163 29.6642 231.894 30.9208C230.984 31.7192 230.008 32.4239 228.962 33.035C228.34 33.4144 227.698 33.4538 227.036 33.1532C226.56 32.8822 226.414 32.6309 226.034 31.8719C223.132 26.0569 228.38 20.1334 233.836 16.0777C233.775 15.3483 233.659 14.6239 233.492 13.9093C233.3 13.042 233.006 12.2043 232.612 11.4059C232.218 10.6026 231.732 9.85852 231.156 9.17352C230.575 8.48853 229.927 7.87746 229.199 7.34523C228.471 6.81301 227.693 6.37442 226.859 6.02945C220.139 3.25991 210.69 6.79329 204.375 10.2281C202.378 11.3271 200.457 12.5394 198.602 13.8601C198.799 18.5269 196.847 24.1645 192.818 28.4174C192.297 28.9496 191.746 29.4375 191.155 29.886C190.108 30.6695 189.001 31.3496 187.828 31.9311C187.479 32.1036 187.11 32.1578 186.726 32.0937C186.341 32.0296 186.013 31.8621 185.74 31.591C183.95 29.679 183.98 27.3086 184.825 24.9481C186.513 20.3453 191.428 15.7278 195.518 12.633C195.31 11.0314 194.673 9.61212 193.612 8.38011C192.949 7.9021 192.211 7.60149 191.397 7.48322C189.061 7.14318 186.726 7.1284 184.39 7.44872C178.288 8.13864 170.021 10.307 161.765 14.2297C161.482 17.7532 159.723 21.597 157.584 24.5785C155.213 27.6831 151.421 31.4728 147.478 32.8378C146.911 33.03 146.33 33.168 145.733 33.2469C145.541 33.2567 145.354 33.237 145.172 33.1828C144.156 32.8625 144.045 32.1036 143.847 31.1377C142.755 25.5986 146.578 20.8283 151.269 17.1717C153.646 15.3927 156.153 13.8206 158.797 12.4605C158.752 11.6819 158.55 10.9427 158.186 10.2429C157.822 9.54805 157.331 8.95669 156.709 8.46389C154.616 6.7588 150.471 6.8475 147.67 7.14811C140.445 7.9021 132.361 10.6322 125.884 13.5841C125.702 18.9211 121.238 26.3575 117.507 30.6104C115.656 32.6752 112.552 35.8094 109.736 35.0406C109.316 34.9174 108.942 34.7154 108.609 34.4345C106.642 32.9315 105.413 31.0736 105.393 28.7476C105.393 23.6372 111.581 18.7142 116.273 15.8263C118.508 14.4416 120.808 13.18 123.179 12.0367C123.073 11.5882 122.911 11.1595 122.699 10.7505C121.117 7.70498 116.718 6.81301 112.987 6.68981C104.584 6.41384 93.5828 9.59733 86.358 13.1899C86.3075 18.3692 83.547 25.0565 80.1091 29.5262C79.1181 30.8124 77.6115 32.5077 76.1706 33.3651C74.0219 34.7055 72.2321 34.3359 71.1957 33.1631C70.2857 32.0789 69.6587 30.8518 69.32 29.4868C68.1926 24.751 71.7266 20.2763 75.7257 17.0633C78.3042 15.028 81.0646 13.2687 84.0071 11.7903C83.7593 9.02076 82.7077 7.48322 81.2618 6.33992C80.5034 5.78798 79.6692 5.38389 78.7642 5.1227C78.289 4.98472 77.8036 4.87137 77.3082 4.79252C76.4992 4.65947 75.6852 4.62004 74.8662 4.66932C67.8589 5.07342 57.9242 8.82363 51.6955 11.7903C51.6197 14.6091 51.1343 17.354 50.2293 20.0299C49.3243 22.7009 48.0402 25.1896 46.3819 27.486C45.6639 28.4864 44.85 29.4079 43.95 30.2556C42.3423 31.6502 37.8224 34.9519 35.6434 34.5429C35.2086 34.4641 34.8445 34.267 34.5513 33.9466C26.0171 25.4655 38.6263 15.9249 49.6934 10.5189C49.6479 8.07951 49.1272 4.79252 46.7206 3.76257C46.0583 3.47674 45.3707 3.32891 44.6477 3.31905C40.6233 3.31905 35.3349 6.25121 32.0285 8.30127C21.8966 14.6091 8.38756 26.8799 2.90203 33.1384C1.12239 35.1688 2.0476 34.469 1.05666 35.0949L0.389297 34.9815L0 34.4739C0.136507 33.7692 0.0960601 33.8924 0.176953 33.7692C3.84746 28.585 31.6998 1.53018 44.5062 1.53018C49.4608 1.53018 51.3416 5.02414 51.65 9.53327C57.5046 6.72923 70.1744 2.07226 76.5548 2.62913C79.0423 2.76218 81.2567 3.59994 83.1982 5.14241C84.8868 6.65038 85.8777 8.5181 86.1811 10.7456C94.9984 6.64053 110.181 2.32359 119.332 5.37403C122.33 6.37442 124.641 8.14357 125.525 10.9575C129.742 9.07004 134.08 7.52264 138.539 6.31528C143.337 5.00443 150.926 3.59502 155.658 5.06356C156.805 5.38881 157.832 5.93582 158.737 6.69966C160.163 7.87746 161.062 9.37065 161.421 11.1694C164.152 9.9078 166.947 8.799 169.804 7.84789C175.997 5.78798 188.945 2.52071 194.572 5.63521C195.533 6.18715 196.266 6.94606 196.777 7.91688C197.287 8.7645 197.682 9.6614 197.955 10.6125C200.887 8.6413 203.971 6.95099 207.217 5.53665C211.934 3.4866 216.974 2.03777 222.197 2.21517C229.392 2.44679 234.584 6.76373 236.176 12.5492C236.308 12.9779 236.51 13.9044 236.525 14.0325C238.76 12.6083 241.075 11.3172 243.467 10.1591C246.05 8.8877 248.705 7.76411 251.42 6.78837C255.257 5.4036 261.683 3.52603 265.773 4.09767C266.263 4.16174 266.744 4.27508 267.209 4.43278C268.154 4.74324 268.923 5.29518 269.509 6.08859C271.248 8.30127 271.794 10.8293 271.794 13.5693C271.941 13.4707 274.211 11.81 276.542 10.4548C282.068 7.13333 291.178 3.17614 297.751 3.98433C302.099 4.39828 306.3 7.36494 307.094 12.3669C310.633 9.83881 319.526 5.63521 328.429 3.43732C333.991 2.15604 341.332 0.850116 346.403 3.3979C347.232 3.81678 347.97 4.35393 348.622 5.01428C350.432 6.85736 350.973 9.52834 350.746 11.948C359.72 6.35963 376.04 -2.34816 385.08 3.2057C386.03 3.74286 386.763 4.49191 387.274 5.44795C394.236 1.23943 405.288 -2.64877 411.572 2.36301C412.775 3.38311 413.66 4.62497 414.216 6.08859C414.868 7.82818 415.197 9.62197 415.202 11.4749C418.691 8.86306 422.417 6.62574 426.37 4.75803C430.718 2.73262 435.799 1.02752 440.703 1.02752ZM108.836 26.0766C107.855 27.969 107.678 29.7677 109.084 31.4284C109.509 31.9311 109.989 32.3697 110.525 32.7491H110.666C110.863 32.7245 111.051 32.6752 111.227 32.5914C111.87 32.3007 112.461 31.9311 113.002 31.4826C116.764 28.516 122.082 20.5079 123.134 14.9196C118.21 17.3491 111.354 21.5921 108.836 26.0766ZM41.1946 17.9552C35.4613 22.2771 31.0072 27.6486 36.0984 32.6653C36.3006 32.6456 36.4978 32.6013 36.6899 32.5372C36.8062 32.4929 37.0337 32.4189 37.3269 32.2859C38.9903 31.458 40.5525 30.4675 42.0035 29.3094C43.1006 28.4026 44.0511 27.3677 44.85 26.1949C47.6913 22.1785 49.2839 17.7236 49.6226 12.84C46.67 14.3134 43.859 16.0185 41.1946 17.9552ZM83.9717 14.4366C77.7935 17.7778 69.5829 23.8048 71.9136 29.8958C72.2119 30.6695 72.6417 31.3594 73.2079 31.9656H73.6275C76.9542 31.2904 83.0465 22.3017 83.8756 14.3479L83.9717 14.4366ZM385.585 9.12424C383.462 10.6371 383.143 10.8589 381.308 12.3718C377.279 15.8559 372.41 20.7642 371.373 25.7119C370.964 27.7915 371.606 29.5853 373.74 30.6054H373.851C377.43 29.4523 385.585 17.1273 385.585 9.10453V9.12424ZM343.824 19.8575C343.42 20.3355 343.041 20.8381 342.702 21.3654C341.069 23.79 339.603 26.3033 338.303 28.9151C337.525 30.5364 337.646 30.4675 337.57 30.5759C337.747 30.4773 337.914 30.3738 338.076 30.2556C339.957 29.0186 342.207 25.8696 343.46 23.8245C344.603 21.9026 345.599 19.9117 346.453 17.8468C344.891 18.9901 344.669 19.1725 343.824 19.8575ZM147.103 26.3674C146.583 27.6486 146.426 28.9743 146.618 30.3393C150.627 28.9595 156.623 22.7305 158.393 16.2649C158.433 16.1072 158.524 15.7573 158.535 15.6834C154.126 18.177 148.838 21.8829 147.103 26.3674ZM233.648 19.685C231.874 21.2422 229.867 23.2627 228.901 25.3571C228.598 25.9731 228.38 26.6236 228.249 27.2987C228.087 28.1464 228.133 28.9841 228.385 29.8071C229.159 29.2995 229.831 28.6835 230.408 27.964C231.045 27.1608 231.581 26.2984 232.021 25.3768C232.021 25.2191 233.102 23.7161 233.654 19.685H233.648ZM444.005 19.1035C442.165 21.5921 439.065 26.254 438.499 29.1862C438.499 29.2798 438.449 29.4819 438.449 29.5853C439.116 29.2059 439.733 28.7574 440.294 28.2351C442.372 26.4216 444.071 24.3173 445.4 21.9174C446.725 19.5223 447.6 16.9746 448.024 14.2789C447.883 14.4268 445.572 16.9992 444.005 19.1035ZM408.488 20.6262C405.829 24.0808 405.738 25.7316 405.616 27.7275C405.546 28.3435 405.546 28.9595 405.616 29.5804C406.324 29.2601 406.926 28.7969 407.411 28.1956C410.101 25.0861 411.789 20.1975 412.528 16.2797C411.056 17.6201 409.711 19.069 408.488 20.6262ZM187.565 25.6725C187.11 26.7025 187.044 27.7571 187.363 28.8314C188.167 28.3484 188.94 27.8113 189.668 27.2199C192.252 25.0417 194.845 20.7051 195.422 16.1072C192.601 18.3889 188.834 22.2771 187.565 25.6725ZM262.345 28.787C265.293 25.9879 265.824 24.6573 267.3 21.1239C265.06 23.514 263.336 25.7661 262.345 28.787ZM303.702 18.3347C301.052 20.7642 298.803 23.4549 297.973 26.9045C297.857 27.3776 297.776 27.8556 297.721 28.3386C298.449 27.6881 299.106 26.9686 299.687 26.1801C300.441 25.1797 301.118 24.13 301.715 23.0311C302.549 21.5379 303.206 19.9708 303.691 18.3347H303.702Z" fill="black"/>
</svg>

<svg width="465" height="36" fill="none" xmlns="http://www.w3.org/2000/svg"><path fill-rule="evenodd" clip-rule="evenodd" d="M440.703 1.028c2.402.054 4.798.463 6.654 1.877 2.189 1.745 2.7 4.278 2.937 6.678 3.438-3.12 8.064-6.23 12.544-7.856h.692l.491.444v.636l-.491.443c-.111 0-1.84.764-1.956.813a41.896 41.896 0 00-11.259 7.93 25.287 25.287 0 01-4.778 13.315c-1.689 2.306-6.588 7.791-8.57 5.667a2.11 2.11 0 01-.394-1.838 9.05 9.05 0 01.435-1.66c2.017-5.343 7.149-12.07 11.33-16.056a12.609 12.609 0 00-.597-4.652 5.473 5.473 0 00-1.426-2.257c-.96-.853-1.956-1.11-3.255-1.42a16.05 16.05 0 00-5.157-.034c-7.625 1.148-15.441 5.485-21.391 9.93-.648.488-1.305 1.01-1.386 1.109a30.124 30.124 0 01-.95 5.14 32.873 32.873 0 01-1.689 4.804c-1.213 2.854-4.1 7.865-7.503 7.584-.541-.034-.94-.29-1.188-.768-.536-1.025-.333-3.43-.202-4.564a10.38 10.38 0 011.876-4.952 30.125 30.125 0 014.236-5.125c3.61-3.553 3.221-2.543 3.272-3.322.192-7.12-2.483-11.236-10.35-10.753-5.339.454-10.197 2.8-14.636 5.43a12.61 12.61 0 01-.036 3.88c-.788 5.09-3.807 11.132-6.825 15.31-1.582 2.189-4.697 6.165-7.558 6.047-1.123-.088-2.624-1.197-3.307-2.01-2.902-3.45-.824-8.215 1.719-11.852 2.902-4.007 6.871-7.998 13.196-12.182a3.097 3.097 0 00-1.158-1.444 8.911 8.911 0 00-3.377-1.346c-8.863-1.759-23.131 6.372-30.522 11.261-1.497 5.445-6.193 14.36-11.087 17.342a5.617 5.617 0 01-2.741.833 1.677 1.677 0 01-1.259-.414c-.445-.414-.611-.922-.495-1.518.233-2.563 5.41-11.103 7.169-13.06.88-.985 5.845-4.395 5.966-4.48.349-1.389.445-2.793.298-4.217a5.12 5.12 0 00-.733-2.189 5.256 5.256 0 00-1.623-1.66 8.898 8.898 0 00-3.458-1.208c-9.808-1.444-27.109 5.047-34.976 10.881a22.127 22.127 0 01-2.477 7.89c-1.375 2.632-5.162 8.718-8.236 7.984-1.689-.444-1.78-2.134-1.527-3.716a15.05 15.05 0 011.633-4.918c1.891-3.484 4.57-5.909 7.781-8.447v-.67a6.699 6.699 0 00-.87-3.272 6.818 6.818 0 00-2.336-2.48c-2.679-1.773-5.793-1.556-9.09-.94-5.066 1.104-9.505 3.144-13.898 5.716a55.842 55.842 0 00-6.603 4.564c-.162.128-.116.069-.152.266a28.723 28.723 0 01-3.028 8.387 18.848 18.848 0 01-3.944 4.84 11.646 11.646 0 01-2.007 1.66c-.773.478-1.244.808-1.81.808a1.532 1.532 0 01-1.122-.438 1.33 1.33 0 01-.415-.996 10.34 10.34 0 01.895-5.17 21.668 21.668 0 012.897-4.715 39.832 39.832 0 015.718-5.845c.465-2.927.248-6.732-1.987-8.856h-.066c-.045-.03-.091-.049-.136-.069a4.925 4.925 0 00-1.79-.315c-2.164-.069-5.066.552-7.169 1.109a70.469 70.469 0 00-20.506 9.452 20.664 20.664 0 01-2.007 9.255 15.023 15.023 0 01-3.039 4.292 18.86 18.86 0 01-2.932 2.114c-.622.38-1.264.419-1.926.118-.476-.27-.622-.522-1.002-1.281-2.902-5.815 2.346-11.739 7.802-15.794a15.035 15.035 0 00-.344-2.169 11.038 11.038 0 00-.88-2.503 10.949 10.949 0 00-1.456-2.232 11.205 11.205 0 00-4.297-3.144c-6.72-2.77-16.169.763-22.484 4.198a58.949 58.949 0 00-5.773 3.632c.197 4.667-1.755 10.305-5.784 14.557a15.063 15.063 0 01-1.663 1.469 21.399 21.399 0 01-3.327 2.045 1.774 1.774 0 01-1.102.163 1.78 1.78 0 01-.986-.503c-1.79-1.912-1.76-4.282-.915-6.643 1.688-4.603 6.603-9.22 10.693-12.315a7.963 7.963 0 00-1.906-4.253 4.953 4.953 0 00-2.215-.897 24.908 24.908 0 00-7.007-.034c-6.102.69-14.369 2.858-22.625 6.78-.283 3.524-2.042 7.368-4.181 10.35-2.371 3.104-6.163 6.894-10.106 8.259a9.162 9.162 0 01-1.745.409c-.192.01-.379-.01-.561-.064-1.016-.32-1.127-1.08-1.325-2.045-1.092-5.54 2.731-10.31 7.422-13.966a53.016 53.016 0 017.528-4.712 5.43 5.43 0 00-.611-2.217 5.502 5.502 0 00-1.477-1.78c-2.093-1.704-6.238-1.615-9.039-1.315-7.225.754-15.309 3.484-21.786 6.436-.182 5.337-4.646 12.774-8.377 17.026-1.851 2.065-4.955 5.2-7.771 4.43a3.065 3.065 0 01-1.127-.605c-1.967-1.504-3.196-3.361-3.216-5.687 0-5.11 6.188-10.034 10.88-12.922a74.71 74.71 0 016.906-3.79 5.575 5.575 0 00-.48-1.285c-1.582-3.046-5.981-3.938-9.712-4.061-8.403-.276-19.404 2.907-26.629 6.5-.05 5.18-2.811 11.867-6.249 16.336-.99 1.286-2.497 2.982-3.938 3.84-2.15 1.34-3.939.97-4.975-.203a9.04 9.04 0 01-1.876-3.676c-1.127-4.736 2.407-9.21 6.406-12.424a48.42 48.42 0 018.281-5.273c-.248-2.77-1.3-4.307-2.745-5.45a7.964 7.964 0 00-2.498-1.217 11.97 11.97 0 00-1.456-.33 10.948 10.948 0 00-2.442-.124c-7.007.404-16.942 4.155-23.17 7.121a27.905 27.905 0 01-1.467 8.24 28.053 28.053 0 01-3.847 7.456 19.11 19.11 0 01-2.432 2.77c-1.608 1.394-6.128 4.696-8.307 4.287a1.896 1.896 0 01-1.092-.596c-8.534-8.482 4.075-18.022 15.142-23.428-.045-2.44-.566-5.726-2.972-6.756a5.354 5.354 0 00-2.073-.444c-4.025 0-9.313 2.932-12.62 4.982C21.898 14.61 8.389 26.88 2.902 33.138c-1.78 2.03-.854 1.331-1.845 1.957l-.668-.114L0 34.474c.137-.705.096-.582.177-.705C3.847 28.585 31.7 1.53 44.507 1.53c4.954 0 6.835 3.494 7.143 8.003 5.855-2.804 18.524-7.46 24.905-6.904 2.487.133 4.702.97 6.643 2.513 1.689 1.508 2.68 3.376 2.983 5.604 8.817-4.105 24-8.422 33.151-5.372 2.998 1 5.309 2.77 6.193 5.583a88.292 88.292 0 0113.014-4.642c4.798-1.31 12.387-2.72 17.119-1.251a8.185 8.185 0 013.079 1.636c1.426 1.177 2.325 2.67 2.684 4.47a80.948 80.948 0 018.383-3.322c6.193-2.06 19.141-5.327 24.768-2.213a5.575 5.575 0 012.205 2.282c.51.848.905 1.744 1.178 2.696a58.287 58.287 0 019.262-5.076c4.717-2.05 9.757-3.5 14.98-3.322 7.195.232 12.387 4.549 13.979 10.334.132.429.334 1.355.349 1.484a68.257 68.257 0 016.942-3.874 76.886 76.886 0 017.953-3.37c3.837-1.385 10.263-3.263 14.353-2.691.49.064.971.177 1.436.335.945.31 1.714.862 2.3 1.656 1.739 2.212 2.285 4.74 2.285 7.48.147-.098 2.417-1.759 4.748-3.114 5.526-3.322 14.636-7.279 21.209-6.47 4.348.413 8.549 3.38 9.343 8.382 3.539-2.528 12.432-6.732 21.335-8.93 5.562-1.281 12.903-2.587 17.974-.04a8.447 8.447 0 012.219 1.617c1.81 1.843 2.351 4.514 2.124 6.934C359.72 6.36 376.04-2.348 385.08 3.206a5.52 5.52 0 012.194 2.242c6.962-4.209 18.014-8.097 24.298-3.085a9.017 9.017 0 012.644 3.726 15.34 15.34 0 01.986 5.386 64.73 64.73 0 0111.168-6.717c4.348-2.025 9.429-3.73 14.333-3.73zM108.836 26.077c-.981 1.892-1.158 3.69.248 5.351.425.503.905.942 1.441 1.321h.141c.197-.025.385-.074.561-.158a7.807 7.807 0 001.775-1.108c3.762-2.967 9.08-10.975 10.132-16.563-4.924 2.43-11.78 6.672-14.298 11.157zm-67.641-8.122c-5.734 4.322-10.188 9.694-5.097 14.71.203-.02.4-.064.592-.128.116-.044.344-.118.637-.251a26.164 26.164 0 004.677-2.977 14.926 14.926 0 002.846-3.114c2.841-4.017 4.434-8.471 4.773-13.355a59.485 59.485 0 00-8.428 5.115zm42.777-3.518c-6.178 3.34-14.39 9.368-12.058 15.459a6.346 6.346 0 001.294 2.07h.42c3.326-.676 9.418-9.664 10.248-17.618l.096.089zm301.613-5.313c-2.123 1.513-2.442 1.735-4.277 3.248-4.029 3.484-8.898 8.392-9.935 13.34-.409 2.08.233 3.873 2.367 4.893h.111c3.579-1.153 11.734-13.478 11.734-21.5v.02zm-41.761 10.734c-.404.477-.783.98-1.122 1.507a66.7 66.7 0 00-4.399 7.55c-.778 1.621-.657 1.553-.733 1.66.177-.098.344-.201.506-.32 1.881-1.236 4.131-4.385 5.384-6.43a46.261 46.261 0 002.993-5.978c-1.562 1.143-1.784 1.325-2.629 2.01zm-196.721 6.51a7.579 7.579 0 00-.485 3.971c4.009-1.38 10.005-7.608 11.775-14.074.04-.158.131-.508.142-.582-4.409 2.494-9.697 6.2-11.432 10.684zm86.545-6.683c-1.774 1.557-3.781 3.578-4.747 5.672a7.723 7.723 0 00-.652 1.942 5.15 5.15 0 00.136 2.508 8.683 8.683 0 002.023-1.843 13.526 13.526 0 001.613-2.587c0-.158 1.081-1.66 1.633-5.692h-.006zm210.357-.581c-1.84 2.488-4.94 7.15-5.506 10.082 0 .094-.05.296-.05.4a9.826 9.826 0 001.845-1.35 23.303 23.303 0 005.106-6.319 23.072 23.072 0 002.624-7.638c-.141.148-2.452 2.72-4.019 4.825zm-35.517 1.522c-2.659 3.455-2.75 5.106-2.872 7.101a8.2 8.2 0 000 1.853 4.843 4.843 0 001.795-1.384c2.69-3.11 4.378-7.998 5.117-11.916a35.633 35.633 0 00-4.04 4.346zm-220.923 5.046a4.453 4.453 0 00-.202 3.16 19.941 19.941 0 002.305-1.612c2.584-2.178 5.177-6.515 5.754-11.113-2.821 2.282-6.588 6.17-7.857 9.566zm74.78 3.115c2.948-2.8 3.479-4.13 4.955-7.663-2.24 2.39-3.964 4.642-4.955 7.663zm41.357-10.452c-2.65 2.43-4.899 5.12-5.729 8.57-.116.473-.197.95-.252 1.434.728-.65 1.385-1.37 1.966-2.159.754-1 1.431-2.05 2.028-3.149a23.018 23.018 0 001.976-4.696h.011z" fill="#000"/></svg>
